dataset/netpeek/icon.svg

<?xml version="1.0" encoding="UTF-8" standalone="no"?>
<svg
   viewBox="0 0 128 128"
   style="display:inline;enable-background:new"
   version="1.0"
   id="svg11300"
   height="128"
   width="128"
   xml:space="preserve"
   xmlns:xlink="http://www.w3.org/1999/xlink"
   xmlns="http://www.w3.org/2000/svg"
   xmlns:svg="http://www.w3.org/2000/svg"
   xmlns:rdf="http://www.w3.org/1999/02/22-rdf-syntax-ns#"
   xmlns:cc="http://creativecommons.org/ns#"
   xmlns:dc="http://purl.org/dc/elements/1.1/"><title
     id="title4162">Adwaita Icon Template</title><defs
     id="defs3"><linearGradient
       id="linearGradient974"><stop
         style="stop-color:#003a75;stop-opacity:0.99607843;"
         offset="0"
         id="stop962" /><stop
         id="stop964"
         offset="0.04166667"
         style="stop-color:#43abe5;stop-opacity:0.99607843;" /><stop
         style="stop-color:#003a75;stop-opacity:0.99607843;"
         offset="0.08333334"
         id="stop966" /><stop
         id="stop968"
         offset="0.91666669"
         style="stop-color:#003a75;stop-opacity:0.99607843;" /><stop
         style="stop-color:#43abe5;stop-opacity:0.99607843;"
         offset="0.95833331"
         id="stop970" /><stop
         style="stop-color:#003a75;stop-opacity:0.99607843;"
         offset="1"
         id="stop972" /></linearGradient><linearGradient
       y2="44"
       x2="464"
       y1="44"
       x1="48"
       gradientTransform="matrix(0.25,0,0,0.25,0,53)"
       gradientUnits="userSpaceOnUse"
       id="linearGradient1747"
       xlink:href="#linearGradient974" /><linearGradient
       id="linearGradient26"
       spreadMethod="pad"
       gradientTransform="matrix(-89.129422,-89.129422,89.129422,-89.129422,-76.387771,103.73604)"
       gradientUnits="userSpaceOnUse"
       y2="0"
       x2="1"
       y1="0"
       x1="0">
      <stop
   id="stop22"
   offset="0"
   style="stop-color:#1e96d9;stop-opacity:0.99607843;" />
      <stop
   id="stop24"
   offset="1"
   style="stop-color:#0054aa;stop-opacity:0.99607843;" />
    </linearGradient><linearGradient
       xlink:href="#linearGradient26"
       id="linearGradient2"
       x1="63.999996"
       y1="-10.138752"
       x2="63.999996"
       y2="134.13875"
       gradientUnits="userSpaceOnUse" /><filter
       style="color-interpolation-filters:sRGB"
       id="filter90"
       x="-0.00010846154"
       y="-0.00013428572"
       width="1.0002169"
       height="1.0002686"><feGaussianBlur
         stdDeviation="0.0046999998"
         id="feGaussianBlur90" /></filter></defs><metadata
     id="metadata4"><rdf:RDF><cc:Work
         rdf:about=""><dc:format>image/svg+xml</dc:format><dc:type
           rdf:resource="http://purl.org/dc/dcmitype/StillImage" /><dc:creator><cc:Agent><dc:title>GNOME Design Team</dc:title></cc:Agent></dc:creator><dc:source /><cc:license
           rdf:resource="http://creativecommons.org/licenses/by-sa/4.0/" /><dc:title>Adwaita Icon Template</dc:title><dc:subject><rdf:Bag /></dc:subject><dc:date /><dc:rights><cc:Agent><dc:title /></cc:Agent></dc:rights><dc:publisher><cc:Agent><dc:title /></cc:Agent></dc:publisher><dc:identifier /><dc:relation /><dc:language /><dc:coverage /><dc:description /><dc:contributor><cc:Agent><dc:title /></cc:Agent></dc:contributor></cc:Work><cc:License
         rdf:about="http://creativecommons.org/licenses/by-sa/4.0/"><cc:permits
           rdf:resource="http://creativecommons.org/ns#Reproduction" /><cc:permits
           rdf:resource="http://creativecommons.org/ns#Distribution" /><cc:requires
           rdf:resource="http://creativecommons.org/ns#Notice" /><cc:requires
           rdf:resource="http://creativecommons.org/ns#Attribution" /><cc:permits
           rdf:resource="http://creativecommons.org/ns#DerivativeWorks" /><cc:requires
           rdf:resource="http://creativecommons.org/ns#ShareAlike" /></cc:License></rdf:RDF></metadata><rect
     ry="8"
     rx="8"
     y="32"
     x="12"
     height="83.999992"
     width="104"
     id="rect1709"
     style="display:inline;fill:url(#linearGradient1747);fill-opacity:1;stroke:none;stroke-width:0.25;stroke-linecap:butt;stroke-linejoin:miter;stroke-miterlimit:4;stroke-dasharray:none;stroke-dashoffset:0;stroke-opacity:1;marker:none;marker-start:none;marker-mid:none;marker-end:none;paint-order:normal;enable-background:new;filter:url(#filter90)" /><rect
     style="display:inline;fill:url(#linearGradient2);fill-opacity:1;stroke:none;stroke-width:0.25;stroke-linecap:butt;stroke-linejoin:miter;stroke-miterlimit:4;stroke-dasharray:none;stroke-dashoffset:0;stroke-opacity:1;marker:none;marker-start:none;marker-mid:none;marker-end:none;paint-order:normal;enable-background:new"
     id="rect1711"
     width="104"
     height="100"
     x="12"
     y="12"
     rx="8"
     ry="8" /><path
     id="path12-1"
     style="clip-rule:evenodd;display:inline;opacity:0.996;fill-rule:evenodd;stroke-width:0.110127;image-rendering:optimizeQuality;shape-rendering:geometricPrecision;text-rendering:geometricPrecision;enable-background:new;fill:#f6f6f6;fill-opacity:1"
     d="M 64.511719 35.023438 C 61.262987 34.995906 58.009246 35.268423 54.753906 35.841797 C 52.408982 36.292325 50.096796 36.861308 47.816406 37.548828 C 44.305353 38.790284 40.928883 40.331742 37.685547 42.173828 C 34.776996 44.126371 32.023555 46.292812 29.425781 48.671875 C 28.830987 49.266007 28.279909 49.890991 27.773438 50.544922 C 27.722009 51.084542 27.795803 51.597747 27.994141 52.085938 C 28.878127 53.043377 29.796554 53.961805 30.748047 54.839844 C 31.280068 55.353364 31.829194 55.848553 32.398438 56.326172 C 32.906232 56.437069 33.383515 56.363165 33.830078 56.105469 C 35.049399 54.665675 36.40908 53.381851 37.90625 52.251953 C 43.584263 47.982348 49.933713 45.210892 56.957031 43.9375 C 57.694541 43.847857 58.429254 43.736077 59.160156 43.605469 C 62.128396 43.208683 65.101486 43.172762 68.080078 43.496094 C 71.52032 43.804558 74.86076 44.557382 78.101562 45.753906 C 84.302677 47.886726 89.661857 51.301071 94.179688 55.996094 C 94.837032 56.500364 95.497936 56.500364 96.162109 55.996094 C 97.172189 54.857496 98.236473 53.773355 99.355469 52.746094 C 99.654462 52.447211 99.912092 52.117735 100.12695 51.755859 C 100.21987 51.359514 100.25583 50.956135 100.23633 50.544922 C 98.766252 48.854701 97.150887 47.313242 95.390625 45.919922 C 94.961462 45.577538 94.558082 45.210079 94.179688 44.818359 C 90.786138 42.31287 87.116114 40.256256 83.167969 38.650391 C 80.986913 37.812439 78.784552 37.07763 76.560547 36.447266 C 75.787569 36.312361 75.01684 36.166505 74.248047 36.007812 C 71.005922 35.379375 67.760451 35.050969 64.511719 35.023438 z M 66.482422 38.759766 C 66.482772 38.760094 66.482073 38.76139 66.482422 38.761719 C 66.455193 38.779834 66.429881 38.794775 66.404297 38.806641 C 66.429881 38.794775 66.455193 38.777881 66.482422 38.759766 z M 56.363281 41.066406 C 56.357278 41.073612 56.35101 41.080685 56.34375 41.087891 C 56.350631 41.081008 56.357547 41.073289 56.363281 41.066406 z " /><path
     style="clip-rule:evenodd;display:inline;opacity:0.996;fill-rule:evenodd;stroke-width:0.110127;image-rendering:optimizeQuality;shape-rendering:geometricPrecision;text-rendering:geometricPrecision;enable-background:new"
     fill="#f4f4f4"
     d="m 77.110466,53.077191 c 3.507969,1.420522 6.73831,3.292672 9.691132,5.616452 0.694568,0.657675 1.392,1.318435 2.092404,1.982277 0.257366,0.350313 0.49601,0.717364 0.715822,1.101265 0.07257,0.373109 0.05418,0.740161 -0.05506,1.101265 -1.33242,1.497831 -2.727393,2.947867 -4.184807,4.349998 -0.446563,0.257696 -0.923851,0.33115 -1.431645,0.220253 -1.174719,-1.027811 -2.349329,-2.055732 -3.524048,-3.083543 -2.757788,-2.039433 -5.804548,-3.489468 -9.1405,-4.349997 -1.130449,-0.403503 -2.305169,-0.67882 -3.524049,-0.825949 -1.905629,-0.147679 -3.814452,-0.202743 -5.726578,-0.165189 -6.931803,0.511427 -12.805181,3.246199 -17.620242,8.204425 -0.624087,0.367051 -1.248064,0.367051 -1.872151,0 -1.200268,-1.255663 -2.448442,-2.448663 -3.744301,-3.579112 -0.02621,-0.209681 -0.136337,-0.35659 -0.330379,-0.440506 -0.07158,-0.213095 -0.108255,-0.433348 -0.110127,-0.660759 -0.0631,-0.606797 0.120368,-1.120758 0.550633,-1.541771 7.69564,-7.589809 16.983049,-11.022122 27.862007,-10.296829 3.583847,0.23534 7.034441,1.024507 10.351892,2.36772 z"
     id="path25-7" /><path
     style="clip-rule:evenodd;display:inline;opacity:0.998;fill-rule:evenodd;stroke-width:0.110127;image-rendering:optimizeQuality;shape-rendering:geometricPrecision;text-rendering:geometricPrecision;enable-background:new"
     fill="#f1f2f2"
     d="m 77.000339,71.027812 c 0.594793,0.594133 1.145426,1.21822 1.651898,1.872151 0.01817,0.332362 -2.21e-4,0.662741 -0.05506,0.991138 -0.219812,0.383901 -0.458456,0.750953 -0.715822,1.101265 -1.076156,1.020983 -2.140639,2.067185 -3.193669,3.138606 -0.795223,0.538629 -1.566109,0.501846 -2.312656,-0.110127 -3.404672,-3.319763 -7.405898,-4.310902 -12.00379,-2.973415 -1.8542,0.761194 -3.506098,1.825787 -4.955693,3.193668 -0.627281,0.358683 -1.251257,0.358683 -1.872151,0 -0.495789,-0.404164 -0.972967,-0.826279 -1.431644,-1.266454 -0.841367,-0.804585 -1.685707,-1.612142 -2.53291,-2.422784 -0.324543,-0.497331 -0.471341,-1.047963 -0.440506,-1.651897 0.327737,-0.605145 0.768243,-1.137387 1.321518,-1.596835 5.912692,-4.778829 12.520283,-6.100348 19.822772,-3.964554 2.443377,0.890593 4.682579,2.120376 6.717717,3.689238 z"
     id="path41-9" /><path
     style="clip-rule:evenodd;display:inline;opacity:0.996;fill-rule:evenodd;stroke-width:0.110127;image-rendering:optimizeQuality;shape-rendering:geometricPrecision;text-rendering:geometricPrecision;enable-background:new"
     fill="#efefef"
     d="m 69.511736,84.242991 c 0.19107,0.90535 0.264524,1.82315 0.220253,2.75316 -1.119766,3.68087 -3.579221,5.16758 -7.378476,4.46013 -2.177091,-0.7993 -3.498609,-2.32268 -3.964554,-4.57025 0,-0.11013 0,-0.22025 0,-0.33038 0.01938,-3.36106 1.67128,-5.3984 4.955693,-6.112022 2.957447,-0.15649 5.013179,1.109962 6.167084,3.799362 z"
     id="path51-2" /></svg>

<svg xmlns="http://www.w3.org/2000/svg" xmlns:xlink="http://www.w3.org/1999/xlink" xml:space="preserve" width="128" height="128" style="display:inline;enable-background:new" viewBox="0 0 128 128"><title>Adwaita Icon Template</title><defs><linearGradient id="a"><stop offset="0" style="stop-color:#003a75;stop-opacity:.99607843"/><stop offset=".042" style="stop-color:#43abe5;stop-opacity:.99607843"/><stop offset=".083" style="stop-color:#003a75;stop-opacity:.99607843"/><stop offset=".917" style="stop-color:#003a75;stop-opacity:.99607843"/><stop offset=".958" style="stop-color:#43abe5;stop-opacity:.99607843"/><stop offset="1" style="stop-color:#003a75;stop-opacity:.99607843"/></linearGradient><linearGradient xlink:href="#a" id="c" x1="48" x2="464" y1="44" y2="44" gradientTransform="matrix(.25 0 0 .25 0 53)" gradientUnits="userSpaceOnUse"/><linearGradient id="b" x1="0" x2="1" y1="0" y2="0" gradientTransform="rotate(225 -16.71 67.688)scale(126.04804)" gradientUnits="userSpaceOnUse" spreadMethod="pad"><stop offset="0" style="stop-color:#1e96d9;stop-opacity:.99607843"/><stop offset="1" style="stop-color:#0054aa;stop-opacity:.99607843"/></linearGradient><linearGradient xlink:href="#b" id="e" x1="64" x2="64" y1="-10.139" y2="134.139" gradientUnits="userSpaceOnUse"/><filter id="d" width="1" height="1" x="0" y="0" style="color-interpolation-filters:sRGB"><feGaussianBlur stdDeviation=".005"/></filter></defs><rect width="104" height="84" x="12" y="32" rx="8" ry="8" style="display:inline;fill:url(#c);fill-opacity:1;stroke:none;stroke-width:.25;stroke-linecap:butt;stroke-linejoin:miter;stroke-miterlimit:4;stroke-dasharray:none;stroke-dashoffset:0;stroke-opacity:1;marker:none;marker-start:none;marker-mid:none;marker-end:none;paint-order:normal;enable-background:new;filter:url(#d)"/><rect width="104" height="100" x="12" y="12" rx="8" ry="8" style="display:inline;fill:url(#e);fill-opacity:1;stroke:none;stroke-width:.25;stroke-linecap:butt;stroke-linejoin:miter;stroke-miterlimit:4;stroke-dasharray:none;stroke-dashoffset:0;stroke-opacity:1;marker:none;marker-start:none;marker-mid:none;marker-end:none;paint-order:normal;enable-background:new"/><path d="M64.512 35.023a53.5 53.5 0 0 0-9.758.819 69 69 0 0 0-6.938 1.707 63 63 0 0 0-10.13 4.625 70 70 0 0 0-8.26 6.498 20 20 0 0 0-1.653 1.873q-.076.81.221 1.54a49 49 0 0 0 2.754 2.755 32 32 0 0 0 1.65 1.486q.763.166 1.432-.22a25.3 25.3 0 0 1 4.076-3.854q8.517-6.404 19.051-8.315 1.107-.135 2.203-.332a37 37 0 0 1 8.92-.109q5.16.463 10.022 2.258 9.3 3.2 16.078 10.242.986.756 1.982 0a45 45 0 0 1 3.193-3.25q.45-.448.772-.99.139-.594.11-1.211a36 36 0 0 0-4.846-4.625q-.645-.514-1.211-1.102a50.5 50.5 0 0 0-11.012-6.168 77 77 0 0 0-6.607-2.203 77 77 0 0 1-2.313-.44 53.5 53.5 0 0 0-9.736-.984m1.97 3.737v.002a1 1 0 0 1-.078.045q.038-.02.078-.047m-10.119 2.306" style="clip-rule:evenodd;display:inline;opacity:.996;fill-rule:evenodd;stroke-width:.110127;image-rendering:optimizeQuality;shape-rendering:geometricPrecision;text-rendering:geometricPrecision;enable-background:new;fill:#f6f6f6;fill-opacity:1"/><path fill="#f4f4f4" d="M77.11 53.077a39.7 39.7 0 0 1 9.692 5.617l2.092 1.982q.386.525.716 1.101.108.56-.055 1.101a78 78 0 0 1-4.185 4.35 1.94 1.94 0 0 1-1.432.22l-3.524-3.083a26.3 26.3 0 0 0-9.14-4.35 16.2 16.2 0 0 0-3.524-.826 59 59 0 0 0-5.727-.165q-10.398.767-17.62 8.204-.936.55-1.872 0a57 57 0 0 0-3.745-3.579.52.52 0 0 0-.33-.44 2.1 2.1 0 0 1-.11-.66q-.095-.912.55-1.543Q50.44 49.621 66.76 50.71a33.2 33.2 0 0 1 10.351 2.368" style="clip-rule:evenodd;display:inline;opacity:.996;fill-rule:evenodd;stroke-width:.110127;image-rendering:optimizeQuality;shape-rendering:geometricPrecision;text-rendering:geometricPrecision;enable-background:new"/><path fill="#f1f2f2" d="M77 71.028a20 20 0 0 1 1.652 1.872q.027.498-.055.991-.33.576-.716 1.101a128 128 0 0 0-3.193 3.139q-1.193.808-2.313-.11-5.107-4.98-12.004-2.974a16 16 0 0 0-4.955 3.194q-.942.538-1.873 0a24 24 0 0 1-1.431-1.266l-2.533-2.423a2.7 2.7 0 0 1-.44-1.652 5.4 5.4 0 0 1 1.32-1.597q8.87-7.168 19.824-3.964A24.9 24.9 0 0 1 77 71.028" style="clip-rule:evenodd;display:inline;opacity:.998;fill-rule:evenodd;stroke-width:.110127;image-rendering:optimizeQuality;shape-rendering:geometricPrecision;text-rendering:geometricPrecision;enable-background:new"/><path fill="#efefef" d="M69.512 84.243q.285 1.358.22 2.753-1.68 5.522-7.378 4.46-3.267-1.198-3.965-4.57v-.33q.03-5.042 4.956-6.112 4.436-.235 6.167 3.799" style="clip-rule:evenodd;display:inline;opacity:.996;fill-rule:evenodd;stroke-width:.110127;image-rendering:optimizeQuality;shape-rendering:geometricPrecision;text-rendering:geometricPrecision;enable-background:new"/></svg>
